FINK
CUT[AN EINEM SOMMERABEND SCHOEN]
REG[Europa, Mitteleuropa, Deutschland; Schottland]
KEY[F0150  16  A 2/4]
MEL[-5-4  -3_-5_-5_-6-7  1_.21_
    -7_  -6_.-5-6_1_  2_.32_
    -5-4  -3_-5_-5_-6-7  1_.23_
    2_  1_.-6-5_3_  3_2_1_
    54  3_5_1_2_  3_.45_
    43  4_.32_3_  4_.56_
    54  3_5_2_3_  1_.23_
    2_  1_-6_-5_3_  3_2_1_
    54  3_5_1_2_  3_.45_
    43  4_.32_3_  4_.56_
    54  3_5_2_3_  1_.23_
    2_  1_-6_-55_4  3_2_1_ //] >>
FCT[Liebes - Lied]
